svg/u26bd.svg

<svg viewBox="0 0 128 128" xmlns="http://www.w3.org/2000/svg">
  <path d="M63.95,4.06C28.43,3.56,2.05,33.98,3.82,66.51c2.09,38.31,29.48,57.56,61.52,57.34 c33.66-0.23,59.2-24.09,58.5-60.13C123.15,27.74,96.69,4.53,63.95,4.06z" fill="#C8C8C8"/>
  <path d="M35.86,15.21C11,29.46-4.78,69.85,21.7,100.41c3.24,3.74,8.39,6.35,12.3,8.13 c26.7,12.07,59.01-6.49,71.51-20.64c9.92-11.23,13.57-18.68,12.39-34.01c-0.91-11.92-6.01-23.43-16.58-31.94 C77.42,2.67,51.65,6.15,35.86,15.21z" fill="#FFFFFF"/>
  <path d="M60.9,39.79c-0.09-0.05-9.34-5.36-16.52-8.02c-7.48-2.77-13-4.26-13.06-4.27l1.03-3.86 c0.23,0.06,5.75,1.54,13.42,4.39c7.5,2.78,16.74,8.08,17.13,8.31L60.9,39.79z" fill="#171717"/>
  <rect height="4" fill="#171717" transform="matrix(0.2698 -0.9629 0.9629 0.2698 40.3089 93.5178)" width="20.17" x="71.73" y="18.18"/>
  <path d="M117.6,54.52c-0.05-0.02-5.37-2.04-11.31-3.65c-4.47-1.21-10.23-2.44-10.29-2.45l0.83-3.91 c0.24,0.05,5.92,1.26,10.5,2.5c6.15,1.66,11.47,3.69,11.7,3.77L117.6,54.52z" fill="#171717"/>
  <path d="M86.13,93.76c0-0.06-0.5-6.16-1.7-12.4c-1.19-6.16-3.46-11.96-3.48-12.01l3.72-1.47 c0.1,0.25,2.43,6.19,3.69,12.73c1.24,6.47,1.74,12.58,1.76,12.84L86.13,93.76z" fill="#171717"/>
  <path d="M106.02,99.32l-2.64-3.01c0.04-0.03,3.88-3.43,8.62-9.83c4.38-5.92,6.4-11.1,6.42-11.16l3.73,1.43 c-0.09,0.23-2.24,5.75-6.94,12.1C110.2,95.63,106.19,99.17,106.02,99.32z" fill="#171717"/>
  <rect height="4" fill="#171717" transform="matrix(0.746 -0.6659 0.6659 0.746 -35.0204 48.257)" width="31.02" x="30.24" y="68.04"/>
  <path d="M12.91,73.35c-0.06-0.39-1.38-9.64-1.38-18.1c0-8.44,0.96-16.25,1.01-16.58l3.97,0.5 c-0.01,0.08-0.97,7.9-0.97,16.08c0,8.16,1.33,17.44,1.34,17.53L12.91,73.35z" fill="#171717"/>
  <path d="M71.3,113.65c-0.25-0.03-6.35-0.8-16.9-3.9c-6.72-1.98-14.4-6.04-14.73-6.21l1.88-3.53 c0.08,0.04,7.65,4.05,13.98,5.91c10.2,3,16.2,3.76,16.26,3.77L71.3,113.65z" fill="#171717"/>
  <path d="M53.37,32.72c-0.31,0.78,0.1,28.63,0.73,29.46s28.63,10.34,29.88,10.03 c1.25-0.31,16.19-23.82,16.19-24.76S81.79,23.84,80.85,23.63C79.91,23.42,53.79,31.67,53.37,32.72z" fill="#474C4F"/>
  <path d="M117.36,36.14c0,0-4.12,13.71-4.12,14.76c0,1.04,2.51,6.79,3.66,13.89 c1.15,7.1-0.52,17.76,0.21,18.18c0.73,0.42,4.35,0.21,4.35,0.21s3.49-10.97,2.02-25.07C122.01,44,117.36,36.14,117.36,36.14z" fill="#474C4F"/>
  <path d="M87.64,90.7c-0.84,0.08-22.88,19.01-22.78,19.54c0.1,0.52,8.63,13.09,8.63,13.09 s10.72-0.85,20.54-6.17s13.55-10.05,13.55-10.05s1.36-12.64,0.84-12.74C107.91,94.25,88.69,90.6,87.64,90.7z" fill="#474C4F"/>
  <path d="M14.09,67.09c-0.57,0.47-3.87,7.73-4.81,11.81c-0.94,4.07-1.46,7.94-1.46,7.94s2.51,7.26,6.27,12.64 c4.66,6.66,10.72,11.36,10.72,11.36s19.78-6.03,19.89-6.87s-2.3-8.15-3.97-14.21c-1.67-6.06-1.98-12.85-2.61-13.27 c-0.63-0.42-7-2.4-12.01-4.39S14.72,66.57,14.09,67.09z" fill="#474C4F"/>
  <path d="M7.89,41.88c0,0,5.47,4.73,6.31,4.73c0.84,0,6.14-7.02,11.49-11.28c7.21-5.75,10.76-7.63,10.87-8.36 c0.1-0.73,3.24-18.18,3.24-18.18s-11.6,4.39-20.06,14.1S7.89,41.88,7.89,41.88z" fill="#474C4F"/>
  <path d="M67.05,4.13c0,0,6.67,3.43,9.1,5.12c2.43,1.69,6.01,5.27,7.07,5.38c1.05,0.11,15.56,0.12,15.56,0.12 s-6.58-4.5-13.87-7.08C76.14,4.56,67.05,4.13,67.05,4.13z" fill="#474C4F"/>
</svg>

<svg viewBox="0 0 128 128" xmlns="http://www.w3.org/2000/svg">
  <defs/>
  <path d="M63.95,4.06 C28.43,3.56 2.05,33.98 3.82,66.51 C5.91,104.82 33.3,124.07 65.34,123.85 C99,123.62 124.54,99.76 123.84,63.72 C123.15,27.74 96.69,4.53 63.95,4.06 Z" fill="#C8C8C8"/>
  <path d="M35.86,15.21 C11,29.46 -4.78,69.85 21.7,100.41 C24.94,104.15 30.09,106.76 34,108.54 C60.7,120.61 93.01,102.05 105.51,87.9 C115.43,76.67 119.08,69.22 117.9,53.89 C116.99,41.97 111.89,30.46 101.32,21.95 C77.42,2.67 51.65,6.15 35.86,15.21 Z" fill="#FFFFFF"/>
  <path d="M60.9,39.79 C60.81,39.74 51.56,34.43 44.38,31.77 C36.9,29 31.38,27.51 31.32,27.5 L32.35,23.64 C32.58,23.7 38.1,25.18 45.77,28.03 C53.27,30.81 62.51,36.11 62.9,36.34 L60.9,39.79 Z" fill="#171717"/>
  <path d="M77.167,29.354 L82.609,9.932 L86.461,11.011 L81.019,30.433 L77.167,29.354 Z" fill="#171717"/>
  <path d="M117.6,54.52 C117.55,54.5 112.23,52.48 106.29,50.87 C101.82,49.66 96.06,48.43 96,48.42 L96.83,44.51 C97.07,44.56 102.75,45.77 107.33,47.01 C113.48,48.67 118.8,50.7 119.03,50.78 L117.6,54.52 Z" fill="#171717"/>
  <path d="M86.13,93.76 C86.13,93.7 85.63,87.6 84.43,81.36 C83.24,75.2 80.97,69.4 80.95,69.35 L84.67,67.88 C84.77,68.13 87.1,74.07 88.36,80.61 C89.6,87.08 90.1,93.19 90.12,93.45 L86.13,93.76 Z" fill="#171717"/>
  <path d="M106.02,99.32 L103.38,96.31 C103.42,96.28 107.26,92.88 112,86.48 C116.38,80.56 118.4,75.38 118.42,75.32 L122.15,76.75 C122.06,76.98 119.91,82.5 115.21,88.85 C110.2,95.63 106.19,99.17 106.02,99.32 Z" fill="#171717"/>
  <path d="M32.846,78.878 L55.987,58.222 L58.651,61.206 L35.51,81.862 L32.846,78.878 Z" fill="#171717"/>
  <path d="M12.91,73.35 C12.85,72.96 11.53,63.71 11.53,55.25 C11.53,46.81 12.49,39 12.54,38.67 L16.51,39.17 C16.5,39.25 15.54,47.07 15.54,55.25 C15.54,63.41 16.87,72.69 16.88,72.78 L12.91,73.35 Z" fill="#171717"/>
  <path d="M71.3,113.65 C71.05,113.62 64.95,112.85 54.4,109.75 C47.68,107.77 40,103.71 39.67,103.54 L41.55,100.01 C41.63,100.05 49.2,104.06 55.53,105.92 C65.73,108.92 71.73,109.68 71.79,109.69 L71.3,113.65 Z" fill="#171717"/>
  <path d="M53.37,32.72 C53.06,33.5 53.47,61.35 54.1,62.18 C54.73,63.01 82.73,72.52 83.98,72.21 C85.23,71.9 100.17,48.39 100.17,47.45 C100.17,46.51 81.79,23.84 80.85,23.63 C79.91,23.42 53.79,31.67 53.37,32.72 Z" fill="#474C4F"/>
  <path d="M117.36,36.14 C117.36,36.14 113.24,49.85 113.24,50.9 C113.24,51.94 115.75,57.69 116.9,64.79 C118.05,71.89 116.38,82.55 117.11,82.97 C117.84,83.39 121.46,83.18 121.46,83.18 C121.46,83.18 124.95,72.21 123.48,58.11 C122.01,44 117.36,36.14 117.36,36.14 Z" fill="#474C4F"/>
  <path d="M87.64,90.7 C86.8,90.78 64.76,109.71 64.86,110.24 C64.96,110.76 73.49,123.33 73.49,123.33 C73.49,123.33 84.21,122.48 94.03,117.16 C103.85,111.84 107.58,107.11 107.58,107.11 C107.58,107.11 108.94,94.47 108.42,94.37 C107.91,94.25 88.69,90.6 87.64,90.7 Z" fill="#474C4F"/>
  <path d="M14.09,67.09 C13.52,67.56 10.22,74.82 9.28,78.9 C8.34,82.97 7.82,86.84 7.82,86.84 C7.82,86.84 10.33,94.1 14.09,99.48 C18.75,106.14 24.81,110.84 24.81,110.84 C24.81,110.84 44.59,104.81 44.7,103.97 C44.81,103.13 42.4,95.82 40.73,89.76 C39.06,83.7 38.75,76.91 38.12,76.49 C37.49,76.07 31.12,74.09 26.11,72.1 C21.1,70.11 14.72,66.57 14.09,67.09 Z" fill="#474C4F"/>
  <path d="M7.89,41.88 C7.89,41.88 13.36,46.61 14.2,46.61 C15.04,46.61 20.34,39.59 25.69,35.33 C32.9,29.58 36.45,27.7 36.56,26.97 C36.66,26.24 39.8,8.79 39.8,8.79 C39.8,8.79 28.2,13.18 19.74,22.89 C11.28,32.6 7.89,41.88 7.89,41.88 Z" fill="#474C4F"/>
  <path d="M67.05,4.13 C67.05,4.13 73.72,7.56 76.15,9.25 C78.58,10.94 82.16,14.52 83.22,14.63 C84.27,14.74 98.78,14.75 98.78,14.75 C98.78,14.75 92.2,10.25 84.91,7.67 C76.14,4.56 67.05,4.13 67.05,4.13 Z" fill="#474C4F"/>
</svg>
